**harm	**harte	**timestamp	**phrase	**leadinstrument	**kern
*M4/4	*M4/4	*	*	*	*
*d:	*d:	*	*	*	*d:
1r;	N	0	.	r	1r;
=1	=1	=1	=1	=1	=1
*>A_intro	*>A_intro	*>A_intro	*>A_intro	*>A_intro	*>A_intro
1r	N	0.433	newline	spoken	1r
=2	=2	=2	=2	=2	=2
1r	N	2.447	.	spoken	1r
=3	=3	=3	=3	=3	=3
1r	N	4.461	.	spoken	1r
=4	=4	=4	=4	=4	=4
1r	N	6.476	.	spoken	1r
=5	=5	=5	=5	=5	=5
1r	N	8.49	.	spoken	1r
=6	=6	=6	=6	=6	=6
1r	N	10.504	.	spoken	1r
=7	=7	=7	=7	=7	=7
1r	N	12.519	newline	drums	1r
=8	=8	=8	=8	=8	=8
1r	N	14.523	.	drums	1r
=9	=9	=9	=9	=9	=9
1r	N	16.527	.	drums	1r
=10	=10	=10	=10	=10	=10
1r	N	18.531	.	drums	1r
=11	=11	=11	=11	=11	=11
*>A_refrain	*>A_refrain	*>A_refrain	*>A_refrain	*>A_refrain	*>A_refrain
1r	N	20.535	newline	spoken	1r
=12	=12	=12	=12	=12	=12
1r	N	22.526	.	spoken	1r
=13	=13	=13	=13	=13	=13
1r	N	24.517	.	spoken	1r
=14	=14	=14	=14	=14	=14
1r	N	26.508	.	spoken	1r
=15	=15	=15	=15	=15	=15
1r	N	28.499	.	spoken	1r
=16	=16	=16	=16	=16	=16
1r	N	30.491	.	spoken	1r
=17	=17	=17	=17	=17	=17
*>A_intro	*>A_intro	*>A_intro	*>A_intro	*>A_intro	*>A_intro
1i	D:min	32.482	newline	synth	1D 1f 1a
=18	=18	=18	=18	=18	=18
1i	D:min	34.482	.	synth	1D 1f 1a
=19	=19	=19	=19	=19	=19
1ic	D:min/5	36.482	.	synth	1d 1f 1A
=20	=20	=20	=20	=20	=20
1ic	D:min/5	38.482	.	synth	1d 1f 1A
=21	=21	=21	=21	=21	=21
1i	D:min	40.482	newline	synth	1D 1f 1a
=22	=22	=22	=22	=22	=22
1i	D:min	42.49	.	synth	1D 1f 1a
=23	=23	=23	=23	=23	=23
1ic	D:min/5	44.499	.	synth	1d 1f 1A
=24	=24	=24	=24	=24	=24
1ic	D:min/5	46.507	.	synth	1d 1f 1A
=25	=25	=25	=25	=25	=25
*>A_verse	*>A_verse	*>A_verse	*>A_verse	*>A_verse	*>A_verse
1i	D:min	48.516	newline	voice	1D 1f 1a
=26	=26	=26	=26	=26	=26
1i	D:min	50.507	.	voice	1D 1f 1a
=27	=27	=27	=27	=27	=27
1ic	D:min/5	52.499	.	voice	1d 1f 1A
=28	=28	=28	=28	=28	=28
1ic	D:min/5	54.49	.	voice	1d 1f 1A
=29	=29	=29	=29	=29	=29
1i	D:min	56.482	newline	voice	1D 1f 1a
=30	=30	=30	=30	=30	=30
1i	D:min	58.485	.	voice	1D 1f 1a
=31	=31	=31	=31	=31	=31
1ic	D:min/5	60.488	.	voice	1d 1f 1A
=32	=32	=32	=32	=32	=32
1ic	D:min/5	62.491	.	voice	1d 1f 1A
=33	=33	=33	=33	=33	=33
1i	D:min	64.494	newline	voice	1D 1f 1a
=34	=34	=34	=34	=34	=34
1i	D:min	66.496	.	voice	1D 1f 1a
=35	=35	=35	=35	=35	=35
1ic	D:min/5	68.497	.	voice	1d 1f 1A
=36	=36	=36	=36	=36	=36
1ic	D:min/5	70.498	.	voice	1d 1f 1A
=37	=37	=37	=37	=37	=37
1i	D:min	72.5	newline	voice	1D 1f 1a
=38	=38	=38	=38	=38	=38
1i	D:min	74.5	.	voice	1D 1f 1a
=39	=39	=39	=39	=39	=39
1ic	D:min/5	76.501	.	voice	1d 1f 1A
=40	=40	=40	=40	=40	=40
1ic	D:min/5	78.501	.	voice	1d 1f 1A
=41	=41	=41	=41	=41	=41
*>A_refrain	*>A_refrain	*>A_refrain	*>A_refrain	*>A_refrain	*>A_refrain
1r	N	80.502	newline	spoken	1r
=42	=42	=42	=42	=42	=42
1r	N	82.501	.	spoken	1r
=43	=43	=43	=43	=43	=43
1r	N	84.5	.	spoken	1r
=44	=44	=44	=44	=44	=44
1r	N	86.5	.	spoken	1r
=45	=45	=45	=45	=45	=45
1r	N	88.499	.	spoken	1r
=46	=46	=46	=46	=46	=46
1r	N	90.499	.	spoken	1r
=47	=47	=47	=47	=47	=47
*>A_solo	*>A_solo	*>A_solo	*>A_solo	*>A_solo	*>A_solo
1i	D:min	92.498	newline	guitar	1D 1f 1a
=48	=48	=48	=48	=48	=48
1i	D:min	94.495	.	guitar	1D 1f 1a
=49	=49	=49	=49	=49	=49
1ic	D:min/5	96.493	.	guitar	1d 1f 1A
=50	=50	=50	=50	=50	=50
1ic	D:min/5	98.49	.	guitar	1d 1f 1A
=51	=51	=51	=51	=51	=51
*>A_verse	*>A_verse	*>A_verse	*>A_verse	*>A_verse	*>A_verse
1i	D:min	100.487	newline	voice	1D 1f 1a
=52	=52	=52	=52	=52	=52
1i	D:min	102.49	.	voice	1D 1f 1a
=53	=53	=53	=53	=53	=53
1ic	D:min/5	104.494	.	voice	1d 1f 1A
=54	=54	=54	=54	=54	=54
1ic	D:min/5	106.497	.	voice	1d 1f 1A
=55	=55	=55	=55	=55	=55
1i	D:min	108.5	newline	voice	1D 1f 1a
=56	=56	=56	=56	=56	=56
1i	D:min	110.5	.	voice	1D 1f 1a
=57	=57	=57	=57	=57	=57
1ic	D:min/5	112.5	.	voice	1d 1f 1A
=58	=58	=58	=58	=58	=58
1ic	D:min/5	114.499	.	voice	1d 1f 1A
=59	=59	=59	=59	=59	=59
1i	D:min	116.499	newline	voice	1D 1f 1a
=60	=60	=60	=60	=60	=60
1i	D:min	118.496	.	voice	1D 1f 1a
=61	=61	=61	=61	=61	=61
1ic	D:min/5	120.493	.	voice	1d 1f 1A
=62	=62	=62	=62	=62	=62
1ic	D:min/5	122.49	.	voice	1d 1f 1A
=63	=63	=63	=63	=63	=63
1i	D:min	124.487	newline	voice	1D 1f 1a
=64	=64	=64	=64	=64	=64
1i	D:min	126.489	.	voice	1D 1f 1a
=65	=65	=65	=65	=65	=65
1ic	D:min/5	128.491	.	voice	1d 1f 1A
=66	=66	=66	=66	=66	=66
1ic	D:min/5	130.492	.	voice	1d 1f 1A
=67	=67	=67	=67	=67	=67
*>A_refrain	*>A_refrain	*>A_refrain	*>A_refrain	*>A_refrain	*>A_refrain
1i7	D:min7	132.494	newline	spoken	1D 1f 1a 1cc#
=68	=68	=68	=68	=68	=68
1i7	D:min7	134.502	.	spoken	1D 1f 1a 1cc#
=69	=69	=69	=69	=69	=69
1i7	D:min7	136.51	.	spoken	1D 1f 1a 1cc#
=70	=70	=70	=70	=70	=70
1i7	D:min7	138.518	.	spoken	1D 1f 1a 1cc#
=71	=71	=71	=71	=71	=71
1i7	D:min7	140.527	newline	spoken	1D 1f 1a 1cc#
=72	=72	=72	=72	=72	=72
1i7	D:min7	142.513	.	spoken	1D 1f 1a 1cc#
=73	=73	=73	=73	=73	=73
1i7	D:min7	144.499	.	spoken	1D 1f 1a 1cc#
=74	=74	=74	=74	=74	=74
1i7	D:min7	146.485	.	spoken	1D 1f 1a 1cc#
=75	=75	=75	=75	=75	=75
*>A_interlude	*>A_interlude	*>A_interlude	*>A_interlude	*>A_interlude	*>A_interlude
1i	D:1	148.471	newline	synth	1D 1f 1a
=76	=76	=76	=76	=76	=76
1i	D:1	150.478	.	synth	1D 1f 1a
=77	=77	=77	=77	=77	=77
1i	D:1	152.486	.	synth	1D 1f 1a
=78	=78	=78	=78	=78	=78
1i	D:1	154.494	.	synth	1D 1f 1a
=79	=79	=79	=79	=79	=79
1i	D:1	156.502	newline	synth	1D 1f 1a
=80	=80	=80	=80	=80	=80
1i	D:1	158.501	.	synth	1D 1f 1a
=81	=81	=81	=81	=81	=81
1i	D:1	160.499	.	synth	1D 1f 1a
=82	=82	=82	=82	=82	=82
1i	D:1	162.498	.	synth	1D 1f 1a
=83	=83	=83	=83	=83	=83
1i	D:1	164.496	newline	synth	1D 1f 1a
=84	=84	=84	=84	=84	=84
1i	D:1	166.494	.	synth	1D 1f 1a
=85	=85	=85	=85	=85	=85
1i	D:1	168.492	.	synth	1D 1f 1a
=86	=86	=86	=86	=86	=86
1i	D:1	170.49	.	synth	1D 1f 1a
=87	=87	=87	=87	=87	=87
1i	D:1	172.488	newline	synth	1D 1f 1a
=88	=88	=88	=88	=88	=88
1i	D:1	174.486	.	synth	1D 1f 1a
=89	=89	=89	=89	=89	=89
1i	D:1	176.484	.	synth	1D 1f 1a
=90	=90	=90	=90	=90	=90
1i	D:1	178.482	.	synth	1D 1f 1a
=91	=91	=91	=91	=91	=91
1i7	D:min7	180.48	newline	guitar	1D 1f 1a 1cc#
=92	=92	=92	=92	=92	=92
1i7	D:min7	182.489	.	guitar	1D 1f 1a 1cc#
=93	=93	=93	=93	=93	=93
1i7	D:min7	184.498	.	guitar	1D 1f 1a 1cc#
=94	=94	=94	=94	=94	=94
1i7	D:min7	186.507	.	guitar	1D 1f 1a 1cc#
=95	=95	=95	=95	=95	=95
*>A_outro	*>A_outro	*>A_outro	*>A_outro	*>A_outro	*>A_outro
1i	D:min	188.516	newline	spoken	1D 1f 1a
=96	=96	=96	=96	=96	=96
1i	D:min	190.517	.	spoken	1D 1f 1a
=97	=97	=97	=97	=97	=97
1ic	D:min/5	192.518	.	spoken	1d 1f 1A
=98	=98	=98	=98	=98	=98
1ic	D:min/5	194.519	.	spoken	1d 1f 1A
=99	=99	=99	=99	=99	=99
1i	D:min	196.52	newline	spoken	1D 1f 1a
=100	=100	=100	=100	=100	=100
1i	D:min	198.521	.	spoken	1D 1f 1a
=101	=101	=101	=101	=101	=101
1ic	D:min/5	200.523	.	spoken	1d 1f 1A
=102	=102	=102	=102	=102	=102
1ic	D:min/5	202.524	.	spoken	1d 1f 1A
=103	=103	=103	=103	=103	=103
1i	D:min	204.525	newline	spoken	1D 1f 1a
=104	=104	=104	=104	=104	=104
1i	D:min	206.518	.	spoken	1D 1f 1a
=105	=105	=105	=105	=105	=105
1ic	D:min/5	208.51	.	spoken	1d 1f 1A
=106	=106	=106	=106	=106	=106
1ic	D:min/5	210.503	.	spoken	1d 1f 1A
=107	=107	=107	=107	=107	=107
1i	D:min	212.496	newline	spoken	1D 1f 1a
=108	=108	=108	=108	=108	=108
1i	D:min	214.502	.	spoken	1D 1f 1a
=109	=109	=109	=109	=109	=109
1ic	D:min/5	216.508	.	spoken	1d 1f 1A
=110	=110	=110	=110	=110	=110
1ic	D:min/5	218.515	.	spoken	1d 1f 1A
=111	=111	=111	=111	=111	=111
1i	D:min	220.521	newline	spoken	1D 1f 1a
=112	=112	=112	=112	=112	=112
1i	D:min	222.515	.	spoken	1D 1f 1a
=113	=113	=113	=113	=113	=113
1ic	D:min/5	224.508	.	spoken	1d 1f 1A
=114	=114	=114	=114	=114	=114
1ic	D:min/5	226.502	.	spoken	1d 1f 1A
=115	=115	=115	=115	=115	=115
1i	D:min	228.496	newline	spoken	1D 1f 1a
=116	=116	=116	=116	=116	=116
1i	D:min	230.5	.	spoken	1D 1f 1a
=117	=117	=117	=117	=117	=117
1ic	D:min/5	232.504	.	spoken	1d 1f 1A
=118	=118	=118	=118	=118	=118
1ic	D:min/5	234.508	.	spoken	1d 1f 1A
=119	=119	=119	=119	=119	=119
1i	D:min	236.512	newline	spoken	1D 1f 1a
=120	=120	=120	=120	=120	=120
1i	D:min	238.507	.	spoken	1D 1f 1a
=121	=121	=121	=121	=121	=121
1ic	D:min/5	240.502	.	spoken	1d 1f 1A
=122	=122	=122	=122	=122	=122
1ic	D:min/5	242.498	.	spoken	1d 1f 1A
=123	=123	=123	=123	=123	=123
*>_fadeout	*>_fadeout	*>_fadeout	*>_fadeout	*>_fadeout	*>_fadeout
1i	D:min	244.493	newline	spoken	1D 1f 1a
=124	=124	=124	=124	=124	=124
1i	D:min	246.5	.	spoken	1D 1f 1a
=125	=125	=125	=125	=125	=125
1ic	D:min/5	248.506	.	spoken	1d 1f 1A
=126	=126	=126	=126	=126	=126
1ic	D:min/5	250.513	.	spoken	1d 1f 1A
1r;	N	264.057	.	r	1r;
1r;	N	266.867	.	r	1r;
*-	*-	*-	*-	*-	*-
!!!OTL: All She Wants Is
!!!COC: Duran Duran
!!!BillboardChartDate: 1989/03/04, 1989/02/18
!!!BillboardPeak: 22, 22
!!!BillboardWeeksOnChart: 13, 13
!!!SampleTargetRank: 42, 21
!!!SampleActualRank: 43, 22
!!!SampleID#: 592, 1226
!!!RDF**harmony: **recip + pitch class of root + harmonic quality
!!!RDF**harte: Chris Harte's syntax, used by MIREX
!!!RDF**phrase: newline = linebreak in original McGill transcription
!!!RDF**timestamp: McGill audio timestamp in seconds
!!!RDF**leadinstrument: original McGill primary instrumentation annotation
!!!RDT: 2017/01/12/
!!!ENC: Nathaniel Condit-Schultz
!!!EST: Awating manual error checking and editing.
